X: 34422
T: Richie Dwyer's Dream
R: reel
M: 4/4
K: Edorian
BAGE AGEB,|EFGB ADFA|Be (3eee fgfe|dBAG FD D2|
BAGF AGFE|GFED B,A, (3B,CD|EB,GE AGBA|GEEB, E4:|
edBG FAdA|(3GFE BE eEBE|edBG A2 Bd|egfg e2 (3efe|
edBG ADBA|GEFD EDB,D|EB,GE AGBA|1 GEEB, E2 (3Bcd:|2 GEEB, E2E2||

